X:1
T:As in the Days of Haggai When
T:Joshua F. Drake, 2006
T:As in the Days of Haggai When
T:Public Domain
T:Public Domain
C:Joshua F. Drake, 2006
Z:Public Domain
%%score ( 1 2 ) ( 3 4 )
L:1/8
M:3/4
K:Eb
V:1 treble 
V:2 treble 
V:3 bass 
V:4 bass 
V:1
 [B,B]2 | [B,E]4 [CG]2 | [A,C]4 [F,B,]2 | ([CA]2 [EG]2) [DF]2 | [EG]4 [FB]2 | [EG]4 E2 | %6
w: 1.~As|in the|days of|Hag- * gai|when The|He- brews|
w: 2.~The|tem- ple|of Ze-|ru- * ba-|bel, Like|that of|
w: 3.~God|shook the|earth and|Gen- * tiles|then Brought|trea- sure|
 ([CA]2 [DG]2) [DF]2 | E4 [B,B]2 | [B,E]4 [CG]2 | [A,C]4 [G,B,]2 | ([CA]2 [EG]2) [DF]2 | %11
w: from * stone|Je- ho-|tem- ple,|built a-|gain * To|
w: o- * mon|Sus- tained|tack, gave|way, and|fell * To|
w: His * store,|But heaven|earth will|shake a-|gain * When|
 [EG]4 [FB]2 | [EG]4 E2 | ([CA]2 [DG]2) [DF]2 | [B,E]4 [EB]2 | [Ec]4 [FA]2 | [EB]4 [EG]2 | %17
w: serve their|God a-|So * too|our hearts|can be|re- made,|
w: rise and|fall a-|But * when|God’s tem-|ple died|and rose|
w: our King|comes once|Then * all|that can|be shak-|en will|
 (B2 F2) [FA]2 | ([FA]2 [EG]2) [EB]2 | [Ec]4 [Dd]2 | [Ge]4 [Gc]2 | [FB]4 [EG]2 | %22
w: From * stone|flesh— * the|heav’n- ly|blade Carves|out an|
w: He * kept|prom- * ise|giv’n to|those Who|built the|
w: Be * purged|dross * re-|moved un-|til He|clears His|
 ([EG]2 [DF]2) [FB]2 | [EG]4 E2 | ([CA]2 [DG]2) [DF]2 | E6 |] %26
w: earth- * ly|home. *|||
w: tem- * ple|then. *|||
w: thresh- * ing|floor. *|||
V:2
 x2 | x6 | x6 | x6 | x6 | x4 E2 | x6 | E4 x2 | x6 | x6 | x6 | x6 | x4 E2 | x6 | x6 | x6 | x6 | %17
w: |||||hewed||vah’s|||||lone,|||||
w: |||||Sol-||at-|||||gain.|||||
w: |||||to||and|||||more.|||||
 D4 x2 | x6 | x6 | x6 | x6 | x6 | x4 E2 | x6 | E6 |] %26
w: to|||||||||
w: the|||||||||
w: and|||||||||
V:3
 [D,F,]2 | [E,G,]4 [C,E,]2 | [C,E,]4 D,2 | ([C,A,]2 [A,,A,]2) [B,,A,]2 | [E,G,]4 [D,D]2 | %5
 [E,B,]4 [C,A,]2 | (A,,>C, [B,,A,]2) [B,,A,]2 | [E,G,]4 [D,F,]2 | [E,G,]4 [C,E,]2 | [C,E,]4 D,2 | %10
 ([C,A,]2 [A,,A,]2) [B,,A,]2 | [E,G,]4 [D,D]2 | [E,B,]4 [C,A,]2 | (A,,>C, [B,,A,]2) [B,,A,]2 | %14
 [E,G,]4 [G,B,]2 | A,4 [F,A,]2 | G,4 [E,B,]2 | [B,,B,]4 [D,B,]2 | [E,B,]4 [G,,B,]2 | %19
 [A,,A,]4 [F,,B,]2 | [G,,B,]4 [E,C]2 | [D,D]4 [E,B,]2 | [B,,B,]4 [D,B,]2 | [E,B,]4 [C,A,]2 | %24
 (A,,>C, [B,,A,]2) [B,,A,]2 | [E,G,]6 |] %26
V:4
 x2 | x6 | x4 D,2 | x6 | x6 | x6 | A,2 x4 | x6 | x6 | x4 D,2 | x6 | x6 | x6 | A,2 x4 | x6 | %15
 A,4 x2 | G,4 x2 | x6 | x6 | x6 | x6 | x6 | x6 | x6 | A,2 x4 | x6 |] %26

